X:5522
T:Return from Camden Town
O:england
R:reel
M:C|
K:Dmix
d2AG FADF|Ec~c2 Ecce|dBcA BGAF|GFEG FDfe|
d2AG FADF|EGAB c2ce|decd BcAF|GFEG FDDe||
fd~d2 fdad|fd~d2 ^cdeg|fddA dAdA|^ceag fdde|
fd~d2 ad~d2|egce gceg|a2ge fded|^ceag fedc||
"variations:"
d2AG FDDF|Ec~c2 Ecce|decd BcAF|GBAG FDFA|
d2AG FDDF|(3EFG AB c2Bc|dBcA BGAF|GBAG FDDe||
fd~d2 fdad|fd~d2 ^cdeg|fd~d2 fdad|(3B^cd eg fdde|
fd~d2 ad~d2|ec~c2 Gceg|afge fded|^ceag fdec||


